icons/copilot-16.svg

<svg width="16" height="16" viewBox="0 0 16 16" fill="none" xmlns="http://www.w3.org/2000/svg">
<g clip-path="url(#clip0_9247_119317)">
<path fill-rule="evenodd" clip-rule="evenodd" d="M7.99814 15.0349C12.6492 15.0349 15.9999 12.0058 15.9999 11.2401V9.36753C15.9306 8.74371 15.3334 7.65848 14.4087 7.27319C14.3955 7.20305 14.3842 7.13054 14.3724 7.05497C14.3438 6.87219 14.3123 6.67138 14.2458 6.44254C14.447 5.93459 14.5 5.3595 14.5 4.78747C14.5 3.91675 14.3725 3.01816 13.8072 2.30264C13.2282 1.56982 12.313 1.17875 11.0828 1.04205C9.87699 0.908076 8.82113 1.07631 8.13918 1.80698C8.08969 1.86 8.03967 1.9152 7.99631 1.9716C7.95294 1.9152 7.90658 1.86 7.8571 1.80698C7.17514 1.07631 6.11928 0.908076 4.91348 1.04205C3.68325 1.17875 2.76803 1.56982 2.18906 2.30264C1.62376 3.01816 1.49631 3.91675 1.49631 4.78747C1.49631 5.3595 1.54926 5.93459 1.75044 6.44254C1.68393 6.67138 1.65252 6.87212 1.62392 7.05491C1.6121 7.1305 1.60075 7.20302 1.5876 7.27319C0.662905 7.65848 0.0657067 8.74371 -0.00366211 9.36753V11.2401C-0.00366211 12.0058 3.34708 15.0349 7.99814 15.0349ZM10.9172 2.53288C9.87297 2.41686 9.42883 2.62362 9.23578 2.83046C9.03194 3.04886 8.87725 3.50883 8.9942 4.44444C9.08492 5.17023 9.2965 5.67458 9.61188 5.99654C9.91096 6.30186 10.3963 6.53747 11.25 6.53747C12.1723 6.53747 12.5295 6.33869 12.6918 6.15788C12.8709 5.95823 13 5.57978 13 4.78747C13 4.02182 12.8774 3.54541 12.6302 3.23253C12.3967 2.93694 11.9369 2.64619 10.9172 2.53288ZM6.76184 2.83046C6.56879 2.62362 6.12465 2.41686 5.08045 2.53288C4.06068 2.64619 3.6009 2.93694 3.36737 3.23253C3.12018 3.54541 2.99763 4.02182 2.99763 4.78747C2.99763 5.57978 3.12668 5.95823 3.30583 6.15788C3.46808 6.33869 3.82531 6.53747 4.74763 6.53747C5.6013 6.53747 6.08666 6.30186 6.38574 5.99654C6.70112 5.67458 6.9127 5.17023 7.00342 4.44444C7.12037 3.50883 6.96568 3.04886 6.76184 2.83046ZM7.99816 13.5503C10.278 13.5503 12.5817 12.4403 13 12.1171V7.86173L12.9769 7.74622C12.4867 7.95586 11.9022 8.03747 11.25 8.03747C10.1037 8.03747 9.19051 7.70994 8.54033 7.04619C8.3213 6.82259 8.14351 6.5723 7.99999 6.30341C7.85647 6.5723 7.67503 6.82259 7.456 7.04619C6.80582 7.70994 5.89266 8.03747 4.74633 8.03747C4.0941 8.03747 3.50959 7.95586 3.01944 7.74622L2.99634 7.86173V12.1171C3.41459 12.4403 5.71829 13.5503 7.99816 13.5503Z" fill="black"/>
<path d="M6.25 9.03747C6.66421 9.03747 7 9.37325 7 9.78747V11.2875C7 11.7017 6.66421 12.0375 6.25 12.0375C5.83579 12.0375 5.5 11.7017 5.5 11.2875V9.78747C5.5 9.37325 5.83579 9.03747 6.25 9.03747Z" fill="black"/>
<path d="M10.5 9.78747C10.5 9.37325 10.1642 9.03747 9.75 9.03747C9.33579 9.03747 9 9.37325 9 9.78747V11.2875C9 11.7017 9.33579 12.0375 9.75 12.0375C10.1642 12.0375 10.5 11.7017 10.5 11.2875V9.78747Z" fill="black"/>
</g>
<defs>
<clipPath id="clip0_9247_119317">
<rect width="16" height="16" fill="white"/>
</clipPath>
</defs>
</svg>

<svg xmlns="http://www.w3.org/2000/svg" width="16" height="16" viewBox="0 0 16 16"><path d="M7.998 15.035c-4.562 0-7.873-2.914-7.998-3.749V9.338c.085-.628.677-1.686 1.588-2.065.013-.07.024-.143.036-.218.029-.183.06-.384.126-.612-.201-.508-.254-1.084-.254-1.656 0-.87.128-1.769.693-2.484.579-.733 1.494-1.124 2.724-1.261 1.206-.134 2.262.034 2.944.765.05.053.096.108.139.165.044-.057.094-.112.143-.165.682-.731 1.738-.899 2.944-.765 1.23.137 2.145.528 2.724 1.261.566.715.693 1.614.693 2.484 0 .572-.053 1.148-.254 1.656.066.228.098.429.126.612.012.076.024.148.037.218.924.385 1.522 1.471 1.591 2.095v1.872c0 .766-3.351 3.795-8.002 3.795Zm0-1.485c2.28 0 4.584-1.11 5.002-1.433V7.862l-.023-.116c-.49.21-1.075.291-1.727.291-1.146 0-2.059-.327-2.71-.991A3.222 3.222 0 0 1 8 6.303a3.24 3.24 0 0 1-.544.743c-.65.664-1.563.991-2.71.991-.652 0-1.236-.081-1.727-.291l-.023.116v4.255c.419.323 2.722 1.433 5.002 1.433ZM6.762 2.83c-.193-.206-.637-.413-1.682-.297-1.019.113-1.479.404-1.713.7-.247.312-.369.789-.369 1.554 0 .793.129 1.171.308 1.371.162.181.519.379 1.442.379.853 0 1.339-.235 1.638-.54.315-.322.527-.827.617-1.553.117-.935-.037-1.395-.241-1.614Zm4.155-.297c-1.044-.116-1.488.091-1.681.297-.204.219-.359.679-.242 1.614.091.726.303 1.231.618 1.553.299.305.784.54 1.638.54.922 0 1.28-.198 1.442-.379.179-.2.308-.578.308-1.371 0-.765-.123-1.242-.37-1.554-.233-.296-.693-.587-1.713-.7Z"/><path d="M6.25 9.037a.75.75 0 0 1 .75.75v1.501a.75.75 0 0 1-1.5 0V9.787a.75.75 0 0 1 .75-.75Zm4.25.75v1.501a.75.75 0 0 1-1.5 0V9.787a.75.75 0 0 1 1.5 0Z"/></svg>
